!!!Genre:	Sher
!!!Mode:	Freygish
!!!Edition:	2015
!!!Listening/dance:	dance
!!!Free rhythm?:	No
!!!Secondary Modes:	All freygish
!!!One_Mode:	yes
**kern
*I"P1
*clefG2
*k[b-e-a-]
*G:frey
*M2/4
*>A
=1
8g
4g
8g
=2
8ccL
8bn
8a-
8gJ
=3
8dd
4bn
8dd
=4
8ccL
8bn
8a-
8gJ
=5
8g
4g
8g
=6
8ccL
8bn
8a-
8gJ
=7
4f
8gL
8a-J
=8
4.g
8r
=9:|!
*>B
4cc
16ee-LL
16ddJ
8ccJ
=10
8ee-L
8ee-J
4dd
=11
4cc
16ee-LL
16ddJ
8ccJ
=12
8bnL
8a-J
4g
=13
4cc
16ee-LL
16ddJ
8ccJ
=14
8ggL
8ggJ
4gg
=15
8ffL
8ee-
8dd
8ccJ
=16
8bnL
8a-
8g
8fJ
=17
8r
8ccL
8bn
8ccJ
=18
8ee-L
8ee-
8dd
8ccJ
=19
8bnL
8cc
8b
8a-J
=20
8gL
8a-
8g
8fJ
=21
8r
8ccL
8bn
8ccJ
=22
8ee-L
16ee-L
16ddJJ
4cc
=23
8bnL
8b
8a-
8a-J
=24
4.g
8r
==
*-
